svg/u1f90d.svg

<svg viewBox="0 0 128 128" xmlns="http://www.w3.org/2000/svg">
  <g>
    <path d="M93.96,8.97C72.05,8.97,64,31.35,64,31.35S56.06,8.97,33.99,8.97c-16.58,0-35.48,13.14-28.5,43.01 c6.98,29.87,58.56,67.08,58.56,67.08s51.39-37.21,58.38-67.08C129.41,22.11,111.87,8.97,93.96,8.97z" fill="#E0E0E0"/>
    <g>
      <path d="M30.61,11.2c17.2,0,25.74,18.49,28.5,25.98c0.39,1.07,1.88,1.1,2.33,0.06l2.52-5.88 C60.41,20.01,50.65,8.97,33.99,8.97c-6.9,0-14.19,2.28-19.86,7.09C19.14,12.77,25.01,11.2,30.61,11.2z" fill="#BDBDBD"/>
      <path d="M93.96,8.97c-5.29,0-9.77,1.54-13.53,3.85c2.64-1.02,5.56-1.62,8.8-1.62 c16.21,0,30.72,12.29,24.17,40.7c-5.62,24.39-38.46,53.98-48.49,65.27c-0.64,0.72-0.86,1.88-0.86,1.88s51.39-37.21,58.38-67.08 C129.41,22.11,110.53,8.97,93.96,8.97z" fill="#BDBDBD"/>
    </g>
    <path d="M17,24.82c3.75-4.68,10.45-8.55,16.13-4.09c3.07,2.41,1.73,7.35-1.02,9.43 c-4,3.04-7.48,4.87-9.92,9.63c-1.46,2.86-2.34,5.99-2.79,9.18c-0.18,1.26-1.83,1.57-2.45,0.46C12.73,41.95,11.53,31.65,17,24.82 z" fill="#FFFFFF"/>
    <path d="M77.13,34.66c-1.76,0-3-1.7-2.36-3.34c1.19-3.02,2.73-5.94,4.58-8.54 c2.74-3.84,7.95-6.08,11.25-3.75c3.38,2.38,2.94,7.14,0.57,9.44C86.07,33.4,79.66,34.66,77.13,34.66z" fill="#FFFFFF"/>
  </g>
</svg>

<svg viewBox="0 0 128 128" xmlns="http://www.w3.org/2000/svg">
  <defs/>
  <path d="M93.96,8.97 C72.05,8.97 64,31.35 64,31.35 C64,31.35 56.06,8.97 33.99,8.97 C17.41,8.97 -1.49,22.11 5.49,51.98 C12.47,81.85 64.05,119.06 64.05,119.06 C64.05,119.06 115.44,81.85 122.43,51.98 C129.41,22.11 111.87,8.97 93.96,8.97 Z" fill="#E0E0E0"/>
  <path d="M30.61,11.2 C47.81,11.2 56.35,29.69 59.11,37.18 C59.5,38.25 60.99,38.28 61.44,37.24 L63.96,31.36 C60.41,20.01 50.65,8.97 33.99,8.97 C27.09,8.97 19.8,11.25 14.13,16.06 C19.14,12.77 25.01,11.2 30.61,11.2 Z" fill="#BDBDBD"/>
  <path d="M93.96,8.97 C88.67,8.97 84.19,10.51 80.43,12.82 C83.07,11.8 85.99,11.2 89.23,11.2 C105.44,11.2 119.95,23.49 113.4,51.9 C107.78,76.29 74.94,105.88 64.91,117.17 C64.27,117.89 64.05,119.05 64.05,119.05 C64.05,119.05 115.44,81.84 122.43,51.97 C129.41,22.11 110.53,8.97 93.96,8.97 Z" fill="#BDBDBD"/>
  <path d="M17,24.82 C20.75,20.14 27.45,16.27 33.13,20.73 C36.2,23.14 34.86,28.08 32.11,30.16 C28.11,33.2 24.63,35.03 22.19,39.79 C20.73,42.65 19.85,45.78 19.4,48.97 C19.22,50.23 17.57,50.54 16.95,49.43 C12.73,41.95 11.53,31.65 17,24.82 Z" fill="#FFFFFF"/>
  <path d="M77.13,34.66 C75.37,34.66 74.13,32.96 74.77,31.32 C75.96,28.3 77.5,25.38 79.35,22.78 C82.09,18.94 87.3,16.7 90.6,19.03 C93.98,21.41 93.54,26.17 91.17,28.47 C86.07,33.4 79.66,34.66 77.13,34.66 Z" fill="#FFFFFF"/>
</svg>
